src/lib/packages/icons/src/assets/line/folder.svg

<svg xmlns="http://www.w3.org/2000/svg" width="24" height="24" fill="none"><path fill="currentColor" d="M18 20.75H6c-2.418 0-3.75-1.332-3.75-3.75V7c0-2.418 1.332-3.75 3.75-3.75h4c.199 0 .39.079.53.22l2.78 2.78H18c2.418 0 3.75 1.332 3.75 3.75v7c0 2.418-1.332 3.75-3.75 3.75Zm-12-16c-1.577 0-2.25.673-2.25 2.25v10c0 1.577.673 2.25 2.25 2.25h12c1.577 0 2.25-.673 2.25-2.25v-7c0-1.577-.673-2.25-2.25-2.25h-5a.747.747 0 0 1-.53-.22L9.69 4.75H6Z"/></svg>

<svg width="24" height="24" viewBox="0 0 24 24" fill="none" xmlns="http://www.w3.org/2000/svg">
<path d="M18 20.75H6C3.582 20.75 2.25 19.418 2.25 17V7C2.25 4.582 3.582 3.25 6 3.25H10C10.199 3.25 10.39 3.329 10.53 3.47L13.3101 6.25H18C20.418 6.25 21.75 7.582 21.75 10V17C21.75 19.418 20.418 20.75 18 20.75ZM6 4.75C4.423 4.75 3.75 5.423 3.75 7V17C3.75 18.577 4.423 19.25 6 19.25H18C19.577 19.25 20.25 18.577 20.25 17V10C20.25 8.423 19.577 7.75 18 7.75H13C12.801 7.75 12.61 7.671 12.47 7.53L9.68994 4.75H6Z" fill="currentColor"/>
</svg>
